sitelenpona/static/omekapo-1.svg

<svg xmlns="http://www.w3.org/2000/svg" xmlns:xlink="http://www.w3.org/1999/xlink" version="1.1" viewBox="28 43 807 664">
   <path fill="currentColor" d="M425 632q-5 0 -10.5 2t-9.5 2q-7 0 -22 -7.5t-28 -10.5q-10 -2 -18 -5.5t-8 -4.5t-2 1l-1 1q-1 0 -15.5 -11t-19.5 -11q-6 0 -36 -19t-32 -19q-5 0 -16 13t-11 19q0 5 -6 12t-17 20t-19 26q-21 37 -44 37q-3 0 -25 -10q-13 -7 -16.5 -11.5t-3.5 -15.5q0 -18 6 -33t14 -18 q8 -2 25 -18t20 -16t31 -41q5 -7 4.5 -11t-7.5 -16q-8 -13 -26.5 -27.5t-18.5 -19.5t-15 -26t-21 -36l-8 -20l15 -14q16 -14 23 -14q11 0 57 58t58 58q9 0 12.5 -5.5t14.5 -19t35 -27.5q31 -18 45 -27q12 -8 89 -45q9 -4 33 -9t42 -8t20 -3q6 0 31 3t58 11.5t37 19.5 q1 3 22.5 13t21.5 20q0 4 19 17.5t19 17.5t6 10t12 19.5t6 34.5q0 33 -14 73q-12 33 -38 47t-61.5 23.5t-56.5 25.5q-14 11 -47 11q-29 0 -62.5 -8t-40.5 -8zM308 468q0 6 -13.5 14t-13.5 15q0 13 76 48q33 15 73.5 25t60 12.5t24.5 2.5q6 0 16.5 -2.5t26 -7t26.5 -6.5 q26 -6 45.5 -18t28.5 -23t14 -24t6 -19t1 -10q0 -15 -8.5 -25t-8.5 -12q0 -7 -3.5 -11.5t-20.5 -15.5q-24 -16 -37.5 -22.5t-37.5 -12.5t-56 -6q-18 0 -37 6t-40.5 15.5t-32.5 12.5q-14 4 -29.5 16.5t-19.5 12.5q-7 0 -7 5t-10.5 14t-16.5 9t-6 7zM235 181q0 -13 12.5 -27 t26.5 -14q19 0 42.5 27.5t25.5 27.5q4 0 6 4t6 11.5t10 12.5q8 7 8 21q0 13 -6.5 23.5t-16.5 10.5q-14 0 -51 -34t-46 -39q-17 -9 -17 -24zM681 241q-6 0 -9.5 6t-6 13.5t-12.5 13.5t-26 6q-37 0 -37 -27q0 -17 10 -26.5t58 -39.5q12 -8 42 -33t39 -36q9 -9 29 -9 q13 0 20.5 7.5t8.5 13t1 8.5q0 18 -45.5 54.5t-58.5 36.5q-6 0 -6 4q0 8 -7 8zM495 236q-38 0 -38 -39l1 -3q0 -3 0.5 -9t1.5 -12.5t1.5 -16t1.5 -18.5q2 -32 6 -42.5t15 -17.5q8 -4 11 -4q4 0 10 7t11.5 21t5.5 31q0 28 -3.5 50.5t-7 33.5t-3.5 13q0 6 -13 6z"/>
</svg>

<svg xmlns="http://www.w3.org/2000/svg" xmlns:xlink="http://www.w3.org/1999/xlink" version="1.1" viewBox="28 43 807 664">
  <g>
    <path fill="currentColor" d="M 425.0,632.0 Q 420.0,632.0 414.5,634.0 Q 409.0,636.0 405.0,636.0 Q 398.0,636.0 383.0,628.5 Q 368.0,621.0 355.0,618.0 Q 345.0,616.0 337.0,612.5 Q 329.0,609.0 329.0,608.0 Q 329.0,607.0 327.0,609.0 L 326.0,610.0 Q 325.0,610.0 310.5,599.0 Q 296.0,588.0 291.0,588.0 Q 285.0,588.0 255.0,569.0 Q 225.0,550.0 223.0,550.0 Q 218.0,550.0 207.0,563.0 Q 196.0,576.0 196.0,582.0 Q 196.0,587.0 190.0,594.0 Q 184.0,601.0 173.0,614.0 Q 162.0,627.0 154.0,640.0 Q 133.0,677.0 110.0,677.0 Q 107.0,677.0 85.0,667.0 Q 72.0,660.0 68.5,655.5 Q 65.0,651.0 65.0,640.0 Q 65.0,622.0 71.0,607.0 Q 77.0,592.0 85.0,589.0 Q 93.0,587.0 110.0,571.0 Q 127.0,555.0 130.0,555.0 Q 133.0,555.0 161.0,514.0 Q 166.0,507.0 165.5,503.0 Q 165.0,499.0 158.0,487.0 Q 150.0,474.0 131.5,459.5 Q 113.0,445.0 113.0,440.0 Q 113.0,435.0 98.0,414.0 Q 83.0,393.0 77.0,378.0 L 69.0,358.0 L 84.0,344.0 Q 100.0,330.0 107.0,330.0 Q 118.0,330.0 164.0,388.0 Q 210.0,446.0 222.0,446.0 Q 231.0,446.0 234.5,440.5 Q 238.0,435.0 249.0,421.5 Q 260.0,408.0 284.0,394.0 Q 315.0,376.0 329.0,367.0 Q 341.0,359.0 418.0,322.0 Q 427.0,318.0 451.0,313.0 Q 475.0,308.0 493.0,305.0 Q 511.0,302.0 513.0,302.0 Q 519.0,302.0 544.0,305.0 Q 569.0,308.0 602.0,316.5 Q 635.0,325.0 639.0,336.0 Q 640.0,339.0 661.5,349.0 Q 683.0,359.0 683.0,369.0 Q 683.0,373.0 702.0,386.5 Q 721.0,400.0 721.0,404.0 Q 721.0,408.0 727.0,414.0 Q 733.0,420.0 739.0,433.5 Q 745.0,447.0 745.0,468.0 Q 745.0,501.0 731.0,541.0 Q 719.0,574.0 693.0,588.0 Q 667.0,602.0 631.5,611.5 Q 596.0,621.0 575.0,637.0 Q 561.0,648.0 528.0,648.0 Q 499.0,648.0 465.5,640.0 Q 432.0,632.0 425.0,632.0 M 308.0,468.0 Q 308.0,474.0 294.5,482.0 Q 281.0,490.0 281.0,497.0 Q 281.0,510.0 357.0,545.0 Q 390.0,560.0 430.5,570.0 Q 471.0,580.0 490.5,582.5 Q 510.0,585.0 515.0,585.0 Q 521.0,585.0 531.5,582.5 Q 542.0,580.0 557.5,575.5 Q 573.0,571.0 584.0,569.0 Q 610.0,563.0 629.5,551.0 Q 649.0,539.0 658.0,528.0 Q 667.0,517.0 672.0,504.0 Q 677.0,491.0 678.0,485.0 Q 679.0,479.0 679.0,475.0 Q 679.0,460.0 670.5,450.0 Q 662.0,440.0 662.0,438.0 Q 662.0,431.0 658.5,426.5 Q 655.0,422.0 638.0,411.0 Q 614.0,395.0 600.5,388.5 Q 587.0,382.0 563.0,376.0 Q 539.0,370.0 507.0,370.0 Q 489.0,370.0 470.0,376.0 Q 451.0,382.0 429.5,391.5 Q 408.0,401.0 397.0,404.0 Q 383.0,408.0 367.5,420.5 Q 352.0,433.0 348.0,433.0 Q 341.0,433.0 341.0,438.0 Q 341.0,443.0 330.5,452.0 Q 320.0,461.0 314.0,461.0 Q 308.0,461.0 308.0,468.0 M 235.0,181.0 Q 235.0,168.0 247.5,154.0 Q 260.0,140.0 274.0,140.0 Q 293.0,140.0 316.5,167.5 Q 340.0,195.0 342.0,195.0 Q 346.0,195.0 348.0,199.0 Q 350.0,203.0 354.0,210.5 Q 358.0,218.0 364.0,223.0 Q 372.0,230.0 372.0,244.0 Q 372.0,257.0 365.5,267.5 Q 359.0,278.0 349.0,278.0 Q 335.0,278.0 298.0,244.0 Q 261.0,210.0 252.0,205.0 Q 235.0,196.0 235.0,181.0 M 681.0,241.0 Q 675.0,241.0 671.5,247.0 Q 668.0,253.0 665.5,260.5 Q 663.0,268.0 653.0,274.0 Q 643.0,280.0 627.0,280.0 Q 590.0,280.0 590.0,253.0 Q 590.0,236.0 600.0,226.5 Q 610.0,217.0 658.0,187.0 Q 670.0,179.0 700.0,154.0 Q 730.0,129.0 739.0,118.0 Q 748.0,109.0 768.0,109.0 Q 781.0,109.0 788.5,116.5 Q 796.0,124.0 797.0,129.5 Q 798.0,135.0 798.0,138.0 Q 798.0,156.0 752.5,192.5 Q 707.0,229.0 694.0,229.0 Q 688.0,229.0 688.0,233.0 Q 688.0,241.0 681.0,241.0 M 495.0,236.0 Q 457.0,236.0 457.0,197.0 L 458.0,194.0 Q 458.0,191.0 458.5,185.0 Q 459.0,179.0 460.0,172.5 Q 461.0,166.0 461.5,156.5 Q 462.0,147.0 463.0,138.0 Q 465.0,106.0 469.0,95.5 Q 473.0,85.0 484.0,78.0 Q 492.0,74.0 495.0,74.0 Q 499.0,74.0 505.0,81.0 Q 511.0,88.0 516.5,102.0 Q 522.0,116.0 522.0,133.0 Q 522.0,161.0 518.5,183.5 Q 515.0,206.0 511.5,217.0 Q 508.0,228.0 508.0,230.0 Q 508.0,236.0 495.0,236.0"/>
  </g>
</svg>
